X: 4372
T: Lady Elinora Homes Reel
C: by D.Dow
%R: reel
B: Niel Gow & Sons "Complete Repository" v.4 p.37 #2
Z: 2021 John Chambers <jc:trillian.mit.edu>
M: C|
L: 1/8
K: D
% - - - - - - - - - -
V: 1 staves=2
A | (F/E/D) BG {B}A2FA | (G/F/E) =c2 ECCE | FDAF GBAg | (f/g/a) e>g fd~d :| g | fdad fddf | ge=cd egga |
fdfa =cgeg | (a/g/f) (g/f/e) fddg | fdad fadg | e=cgc egcg | fdAd GBAg | (f/g/a) eg fd~d |]
% - - - - - - - - - -
% Voice 2 preserves the book's staff layout.
V: 2 clef=bass middle=d
z |\
[d2D2][d2D2] [d2D2][d2D2] | [=c2=C2][c2C2] [c2C2][c2C2] |\
d2d2 g2fe | d2A2 D2D :| z | d'2d'2 d'2d'2 | =c'2c'2 c'2^c'2 |
d'2d'2 =c'2^c'2 | d'2a2 d2d2 |\
d'2d'2 d'2d'2 | =c'2c'2 c'2c'2 | d'2f2 g2fe | d2A2 D2D |]
